assets/images/svg/location.svg

<svg width="21" height="20" viewBox="0 0 21 20" fill="none" xmlns="http://www.w3.org/2000/svg">
<path d="M18.0894 7.04134C17.2144 3.19134 13.8561 1.45801 10.9061 1.45801C10.9061 1.45801 10.9061 1.45801 10.8978 1.45801C7.95609 1.45801 4.58942 3.18301 3.71442 7.03301C2.73942 11.333 5.37276 14.9747 7.75609 17.2663C8.63942 18.1163 9.77276 18.5413 10.9061 18.5413C12.0394 18.5413 13.1728 18.1163 14.0478 17.2663C16.4311 14.9747 19.0644 11.3413 18.0894 7.04134ZM10.9061 11.2163C9.45609 11.2163 8.28109 10.0413 8.28109 8.59134C8.28109 7.14134 9.45609 5.96634 10.9061 5.96634C12.3561 5.96634 13.5311 7.14134 13.5311 8.59134C13.5311 10.0413 12.3561 11.2163 10.9061 11.2163Z" fill="#F58218"/>
</svg>

<svg xmlns="http://www.w3.org/2000/svg" width="21" height="20" fill="none" viewBox="0 0 21 20"><path fill="#f58218" d="M18.09 7.041c-.876-3.85-4.234-5.583-7.184-5.583h-.008c-2.942 0-6.309 1.725-7.184 5.575-.975 4.3 1.659 7.942 4.042 10.233a4.53 4.53 0 0 0 3.15 1.275 4.5 4.5 0 0 0 3.142-1.275c2.383-2.291 5.016-5.925 4.041-10.225m-7.184 4.175a2.625 2.625 0 1 1 0-5.249 2.625 2.625 0 0 1 0 5.25"/></svg>
